img/logo.svg

<svg width="115" height="24" viewBox="0 0 115 24" fill="none" xmlns="http://www.w3.org/2000/svg">
<path fill-rule="evenodd" clip-rule="evenodd" d="M8.45994 10.185C5.65476 10.185 3.36711 7.8975 3.36711 5.0925C3.36711 2.2875 5.65476 0 8.45994 0C11.2652 0 13.5528 2.2875 13.5528 5.0925C13.5528 7.8975 11.2652 10.185 8.45994 10.185ZM8.45994 2.91C7.25986 2.91 6.2773 3.8925 6.2773 5.0925C6.2773 6.2925 7.25986 7.275 8.45994 7.275C9.66002 7.275 10.6426 6.2925 10.6426 5.0925C10.6426 3.885 9.66002 2.91 8.45994 2.91ZM13.0425 24L9.04472 16.635C8.64719 17.565 8.11466 18.4425 7.46962 19.23C5.91702 21.1275 3.73437 22.4775 1.32671 23.025L0.666672 20.19C2.42179 19.785 4.01939 18.795 5.15196 17.4075C6.32954 15.975 6.94458 14.2425 6.94458 12.405L9.74226 11.7225L15.6677 22.635L13.0425 24ZM56.3579 20.6924C55.9378 21.3674 55.3378 21.8924 54.5578 22.2749C53.7777 22.6574 52.9977 22.8524 52.2101 22.8524C51.19 22.8524 50.26 22.6649 49.4124 22.2899C48.5649 21.9149 47.8448 21.4049 47.2373 20.7524C46.6297 20.0999 46.1647 19.3499 45.8272 18.5024C45.4897 17.6549 45.3247 16.7549 45.3247 15.7949C45.3247 14.8574 45.4897 13.9574 45.8272 13.1024C46.1647 12.2474 46.6372 11.4974 47.2373 10.8374C47.8448 10.1849 48.5649 9.66744 49.4124 9.29994C50.26 8.92494 51.19 8.73744 52.2101 8.73744C52.9977 8.73744 53.7777 8.93244 54.5578 9.31494C55.3378 9.69744 55.9378 10.2299 56.3579 10.8974V2.84244H59.5006V22.5074H56.3579V20.6924ZM52.3826 20.0549C52.9751 20.0549 53.5227 19.9424 54.0102 19.7099C54.4978 19.4774 54.9178 19.1699 55.2628 18.7874C55.6078 18.4049 55.8778 17.9549 56.0729 17.4299C56.2679 16.9124 56.3579 16.3649 56.3579 15.7874C56.3579 15.2099 56.2604 14.6624 56.0729 14.1449C55.8778 13.6274 55.6153 13.1774 55.2628 12.7874C54.9178 12.4049 54.4978 12.0974 54.0102 11.8649C53.5227 11.6324 52.9751 11.5199 52.3826 11.5199C51.7901 11.5199 51.25 11.6324 50.77 11.8649C50.29 12.0974 49.8774 12.4049 49.5324 12.7874C49.1874 13.1699 48.9249 13.6199 48.7374 14.1449C48.5574 14.6624 48.4674 15.2099 48.4674 15.7874C48.4674 16.3649 48.5574 16.9124 48.7374 17.4299C48.9174 17.9474 49.1874 18.3974 49.5324 18.7874C49.8774 19.1699 50.29 19.4774 50.77 19.7099C51.25 19.9424 51.7826 20.0549 52.3826 20.0549ZM34.0213 9.08247H30.8785H30.871V22.515H34.0137V15.57C34.0137 14.415 34.2838 13.455 34.8088 12.675C35.3413 11.895 36.1514 11.505 37.2465 11.505C37.8015 11.505 38.2665 11.61 38.6416 11.82C39.0166 12.03 39.3166 12.315 39.5341 12.6675C39.7516 13.02 39.9091 13.4475 40.0066 13.95C40.1042 14.4525 40.1492 14.985 40.1492 15.5625V22.5075H43.2919V14.5275C43.2919 13.605 43.2319 12.84 43.1044 12.225C42.9843 11.61 42.7593 11.055 42.4293 10.5525C42.0468 9.98997 41.5217 9.55497 40.8617 9.22497C40.2017 8.90247 39.3841 8.73747 38.4015 8.73747C37.3965 8.73747 36.5264 8.92497 35.7764 9.29997C35.0263 9.67497 34.4413 10.23 34.0213 10.9575V9.08247ZM24.9531 9.08245H28.0958V22.5074H24.9531V9.08245ZM62.2905 9.08245H65.4332V22.5074H62.2905V9.08245ZM77.4865 13.9799C77.389 13.2524 77.104 12.6599 76.639 12.2099C76.1665 11.7599 75.3939 11.5349 74.3213 11.5349C73.7063 11.5349 73.1813 11.6474 72.7387 11.8799C72.2962 12.1124 71.9212 12.4199 71.6137 12.8174C71.3061 13.2149 71.0811 13.6649 70.9386 14.1749C70.7961 14.6849 70.7211 15.2249 70.7211 15.8024C70.7211 16.3799 70.7961 16.9274 70.9386 17.4449C71.0811 17.9624 71.3061 18.4124 71.6137 18.8024C71.9212 19.1849 72.3112 19.4924 72.7912 19.7249C73.2713 19.9574 73.8488 20.0699 74.5163 20.0699C75.4389 20.0699 76.114 19.8749 76.549 19.4924C76.984 19.1099 77.299 18.5774 77.5165 17.9099H80.6593C80.5468 18.5999 80.3292 19.2524 80.0292 19.8524C79.7217 20.4599 79.3017 20.9849 78.7766 21.4349C78.2516 21.8849 77.614 22.2374 76.879 22.4849C76.1365 22.7324 75.2814 22.8599 74.2988 22.8599C73.2038 22.8599 72.2362 22.6649 71.4036 22.2674C70.5711 21.8774 69.866 21.3524 69.3035 20.6999C68.7335 20.0474 68.3059 19.2974 68.0209 18.4499C67.7359 17.6024 67.5859 16.7249 67.5859 15.8024C67.5859 14.9024 67.7284 14.0249 68.0209 13.1699C68.3059 12.3149 68.7335 11.5649 69.3035 10.9049C69.866 10.2524 70.5636 9.72743 71.3886 9.33743C72.2137 8.94743 73.1738 8.74493 74.2688 8.74493C75.3639 8.74493 76.3015 8.90243 77.074 9.20243C77.8541 9.50993 78.4916 9.90743 79.0016 10.3949C79.5117 10.8824 79.8942 11.4449 80.1567 12.0674C80.4192 12.6899 80.5767 13.3274 80.6293 13.9799H77.4865ZM83.3974 9.08245H86.5401V22.5074H83.3974V9.08245ZM111.014 14.9249C111.472 15.0974 111.929 15.2774 112.372 15.4724C112.814 15.6674 113.204 15.9074 113.549 16.1924C113.894 16.4774 114.172 16.8224 114.367 17.2274C114.569 17.6324 114.667 18.1424 114.667 18.7574C114.667 19.4474 114.524 20.0549 114.247 20.5724C113.969 21.0899 113.587 21.5174 113.092 21.8549C112.604 22.1924 112.027 22.4399 111.374 22.6049C110.722 22.7699 110.032 22.8524 109.297 22.8524C108.569 22.8524 107.872 22.7474 107.219 22.5374C106.566 22.3274 105.981 22.0124 105.479 21.5999C104.969 21.1874 104.564 20.6774 104.271 20.0699C103.971 19.4624 103.821 18.7724 103.821 17.9849H106.874C106.874 18.8699 107.121 19.4849 107.609 19.8449C108.097 20.1974 108.719 20.3774 109.469 20.3774C110.084 20.3774 110.602 20.2649 111.022 20.0324C111.442 19.7999 111.652 19.4024 111.652 18.8249C111.652 18.5174 111.562 18.2699 111.389 18.0749C111.217 17.8799 110.954 17.7074 110.609 17.5424C110.264 17.3774 109.829 17.2124 109.312 17.0399C108.794 16.8674 108.179 16.6499 107.467 16.3799C107.009 16.2074 106.581 16.0199 106.184 15.8174C105.786 15.6149 105.449 15.3824 105.164 15.1124C104.879 14.8424 104.654 14.5049 104.504 14.1074C104.346 13.7024 104.271 13.2149 104.271 12.6374C104.271 11.9999 104.406 11.4449 104.676 10.9649C104.946 10.4849 105.306 10.0799 105.771 9.74244C106.229 9.40494 106.769 9.15743 107.369 8.99243C107.977 8.82743 108.622 8.74493 109.312 8.74493C110.024 8.74493 110.692 8.85744 111.314 9.08993C111.937 9.32243 112.484 9.63744 112.942 10.0424C113.399 10.4474 113.767 10.9274 114.037 11.4824C114.307 12.0374 114.442 12.6449 114.442 13.2974H111.389C111.389 12.6599 111.224 12.1574 110.887 11.7824C110.549 11.4074 110.002 11.2199 109.229 11.2199C108.689 11.2199 108.232 11.3474 107.864 11.5949C107.489 11.8424 107.302 12.2099 107.302 12.6899C107.302 12.9749 107.377 13.2149 107.534 13.3949C107.684 13.5749 107.917 13.7399 108.224 13.8824C108.532 14.0249 108.914 14.1824 109.379 14.3399C109.86 14.5027 110.385 14.6946 110.989 14.9157V14.9158L111.014 14.9249ZM28.7707 5.09259C28.7707 6.33523 27.7633 7.34259 26.5206 7.34259C25.2779 7.34259 24.2705 6.33523 24.2705 5.09259C24.2705 3.84995 25.2779 2.84259 26.5206 2.84259C27.7633 2.84259 28.7707 3.84995 28.7707 5.09259ZM63.8661 7.34244C65.1088 7.34244 66.1162 6.33508 66.1162 5.09244C66.1162 3.8498 65.1088 2.84244 63.8661 2.84244C62.6233 2.84244 61.6159 3.8498 61.6159 5.09244C61.6159 6.33508 62.6233 7.34244 63.8661 7.34244ZM87.2224 5.09244C87.2224 6.33508 86.215 7.34244 84.9723 7.34244C83.7295 7.34244 82.7221 6.33508 82.7221 5.09244C82.7221 3.8498 83.7295 2.84244 84.9723 2.84244C86.215 2.84244 87.2224 3.8498 87.2224 5.09244ZM98.5858 16.1924C98.5858 18.8099 97.2957 19.7774 95.4956 19.7774C93.6954 19.7774 92.4054 18.8099 92.4054 16.1924V9.07493H89.2926V16.3649V16.5149C89.2926 20.7374 91.9553 22.8449 95.4881 22.8449C99.0283 22.8449 101.684 20.7449 101.684 16.5149V16.3649V9.07493H98.5708V16.1924H98.5858Z" fill="white"/>
</svg>

<svg width="115" height="24" fill="none" xmlns="http://www.w3.org/2000/svg"><path fill-rule="evenodd" clip-rule="evenodd" d="M8.46 10.185a5.102 5.102 0 0 1-5.093-5.093A5.102 5.102 0 0 1 8.46 0a5.102 5.102 0 0 1 5.093 5.093 5.102 5.102 0 0 1-5.093 5.092Zm0-7.275a2.19 2.19 0 0 0-2.183 2.183c0 1.2.983 2.182 2.183 2.182a2.19 2.19 0 0 0 2.183-2.183A2.185 2.185 0 0 0 8.46 2.91ZM13.042 24l-3.997-7.365c-.398.93-.93 1.807-1.575 2.595a11.176 11.176 0 0 1-6.143 3.795l-.66-2.835a8.203 8.203 0 0 0 4.485-2.783 7.793 7.793 0 0 0 1.793-5.002l2.797-.682 5.926 10.912L13.043 24Zm43.316-3.308c-.42.675-1.02 1.2-1.8 1.583-.78.382-1.56.577-2.348.577-1.02 0-1.95-.187-2.798-.562a6.545 6.545 0 0 1-2.175-1.538 7.238 7.238 0 0 1-1.913-4.958c0-.937.166-1.837.503-2.692a7.34 7.34 0 0 1 1.41-2.265A6.44 6.44 0 0 1 49.412 9.3c.848-.375 1.778-.563 2.798-.563.788 0 1.568.195 2.348.578.78.382 1.38.915 1.8 1.582V2.842H59.5v19.665h-3.143v-1.815Zm-3.975-.637c.592 0 1.14-.113 1.627-.345.488-.233.908-.54 1.253-.923.345-.382.615-.832.81-1.357a4.614 4.614 0 0 0 .285-1.643c0-.577-.098-1.125-.285-1.642a4.192 4.192 0 0 0-.81-1.358 3.966 3.966 0 0 0-1.253-.922 3.747 3.747 0 0 0-1.627-.345c-.593 0-1.133.112-1.613.345a3.99 3.99 0 0 0-1.238.922 4.005 4.005 0 0 0-.795 1.358 4.964 4.964 0 0 0-.27 1.642c0 .578.09 1.125.27 1.643.18.517.45.967.795 1.357.345.383.758.69 1.238.923.48.232 1.013.345 1.613.345ZM34.02 9.082h-3.15v13.433h3.143V15.57c0-1.155.27-2.115.795-2.895.532-.78 1.342-1.17 2.438-1.17.554 0 1.02.105 1.395.315.375.21.675.495.892.848.218.352.375.78.473 1.282.097.503.142 1.035.142 1.613v6.944h3.143v-7.98c0-.922-.06-1.687-.188-2.302a4.624 4.624 0 0 0-.675-1.672c-.382-.563-.907-.998-1.567-1.328-.66-.323-1.478-.488-2.46-.488-1.005 0-1.876.188-2.626.563-.75.375-1.335.93-1.755 1.657V9.082Zm-9.068 0h3.143v13.425h-3.143V9.082Zm37.338 0h3.142v13.425H62.29V9.082Zm15.196 4.898c-.098-.728-.383-1.32-.848-1.77-.472-.45-1.245-.675-2.318-.675-.615 0-1.14.112-1.582.345-.443.232-.818.54-1.125.937a3.908 3.908 0 0 0-.675 1.358 6.01 6.01 0 0 0-.218 1.627c0 .578.075 1.125.218 1.643.142.517.367.967.675 1.357.307.383.697.69 1.177.923.48.232 1.058.345 1.725.345.923 0 1.598-.195 2.033-.578.435-.382.75-.915.967-1.582h3.143a6.782 6.782 0 0 1-.63 1.942 5.11 5.11 0 0 1-1.252 1.583 5.67 5.67 0 0 1-1.898 1.05c-.743.247-1.598.375-2.58.375-1.095 0-2.063-.195-2.895-.593a6.224 6.224 0 0 1-2.1-1.567 6.56 6.56 0 0 1-1.283-2.25 8.233 8.233 0 0 1 0-5.28 6.628 6.628 0 0 1 1.282-2.265 6.239 6.239 0 0 1 2.086-1.568c.825-.39 1.785-.592 2.88-.592s2.032.157 2.805.457c.78.308 1.418.705 1.928 1.193.51.487.892 1.05 1.155 1.672.262.623.42 1.26.472 1.913h-3.142Zm5.91-4.898h3.143v13.425h-3.143V9.082Zm27.617 5.843c.458.172.915.352 1.358.547.442.195.832.435 1.177.72.345.285.623.63.818 1.035.202.405.3.915.3 1.53 0 .69-.143 1.298-.42 1.815-.278.518-.66.945-1.155 1.283-.488.337-1.065.585-1.718.75a8.426 8.426 0 0 1-2.077.247 6.767 6.767 0 0 1-2.078-.315 5.257 5.257 0 0 1-1.74-.937 4.405 4.405 0 0 1-1.208-1.53c-.3-.608-.45-1.298-.45-2.085h3.053c0 .885.247 1.5.735 1.86.488.352 1.11.532 1.86.532.615 0 1.133-.112 1.553-.345.42-.232.63-.63.63-1.207 0-.308-.09-.555-.263-.75-.172-.195-.435-.368-.78-.533-.345-.165-.78-.33-1.297-.502a48.047 48.047 0 0 1-1.845-.66 12.59 12.59 0 0 1-1.283-.563 4.296 4.296 0 0 1-1.02-.705 2.669 2.669 0 0 1-.66-1.005c-.158-.405-.233-.892-.233-1.47 0-.637.135-1.192.405-1.672s.63-.885 1.095-1.223a4.836 4.836 0 0 1 1.598-.75 7.377 7.377 0 0 1 1.943-.247c.712 0 1.38.112 2.002.345.623.232 1.17.547 1.628.952.457.405.825.885 1.095 1.44a4.1 4.1 0 0 1 .405 1.815h-3.053c0-.637-.165-1.14-.502-1.515-.338-.375-.885-.562-1.658-.562-.54 0-.997.127-1.365.375-.375.247-.562.615-.562 1.095 0 .285.075.525.232.705.15.18.383.345.69.487.308.143.69.3 1.155.458.481.163 1.006.355 1.61.576l.025.009ZM28.771 5.093a2.25 2.25 0 1 1-4.5 0 2.25 2.25 0 0 1 4.5 0Zm35.095 2.25a2.25 2.25 0 1 0 0-4.5 2.25 2.25 0 0 0 0 4.5Zm23.356-2.25a2.25 2.25 0 1 1-4.5 0 2.25 2.25 0 0 1 4.5 0Zm11.364 11.1c0 2.617-1.29 3.584-3.09 3.584-1.8 0-3.09-.967-3.09-3.585V9.075h-3.113v7.44c0 4.222 2.662 6.33 6.195 6.33 3.54 0 6.196-2.1 6.196-6.33v-7.44h-3.113v7.117h.015Z" fill="#fff"/></svg>
